images/50718332.svg

<?xml version="1.0" encoding="UTF-8"?>
<svg xmlns="http://www.w3.org/2000/svg" xmlns:xlink="http://www.w3.org/1999/xlink" width="300pt" height="300pt" viewBox="0 0 300 300" version="1.1">
<defs>
<g>
<symbol overflow="visible" id="glyph0-0">
<path style="stroke:none;" d="M 0.453125 1.59375 L 0.453125 -6.34375 L 4.953125 -6.34375 L 4.953125 1.59375 Z M 0.953125 1.09375 L 4.453125 1.09375 L 4.453125 -5.84375 L 0.953125 -5.84375 Z M 0.953125 1.09375 "/>
</symbol>
<symbol overflow="visible" id="glyph0-1">
<path style="stroke:none;" d="M 0.890625 -6.5625 L 4.65625 -6.5625 L 4.65625 -5.8125 L 1.765625 -5.8125 L 1.765625 -3.875 L 4.375 -3.875 L 4.375 -3.140625 L 1.765625 -3.140625 L 1.765625 0 L 0.890625 0 Z M 0.890625 -6.5625 "/>
</symbol>
<symbol overflow="visible" id="glyph0-2">
<path style="stroke:none;" d="M 0.890625 -6.5625 L 2.078125 -6.5625 L 4.984375 -1.078125 L 4.984375 -6.5625 L 5.84375 -6.5625 L 5.84375 0 L 4.65625 0 L 1.75 -5.484375 L 1.75 0 L 0.890625 0 Z M 0.890625 -6.5625 "/>
</symbol>
<symbol overflow="visible" id="glyph0-3">
<path style="stroke:none;" d="M 0.890625 -6.5625 L 1.765625 -6.5625 L 1.765625 -3.875 L 5 -3.875 L 5 -6.5625 L 5.890625 -6.5625 L 5.890625 0 L 5 0 L 5 -3.125 L 1.765625 -3.125 L 1.765625 0 L 0.890625 0 Z M 0.890625 -6.5625 "/>
</symbol>
<symbol overflow="visible" id="glyph0-4">
<path style="stroke:none;" d="M 3.546875 -5.953125 C 2.898438 -5.953125 2.382812 -5.710938 2 -5.234375 C 1.625 -4.753906 1.4375 -4.101562 1.4375 -3.28125 C 1.4375 -2.445312 1.625 -1.789062 2 -1.3125 C 2.382812 -0.832031 2.898438 -0.59375 3.546875 -0.59375 C 4.191406 -0.59375 4.703125 -0.832031 5.078125 -1.3125 C 5.453125 -1.789062 5.640625 -2.445312 5.640625 -3.28125 C 5.640625 -4.101562 5.453125 -4.753906 5.078125 -5.234375 C 4.703125 -5.710938 4.191406 -5.953125 3.546875 -5.953125 Z M 3.546875 -6.6875 C 4.460938 -6.6875 5.195312 -6.375 5.75 -5.75 C 6.300781 -5.132812 6.578125 -4.3125 6.578125 -3.28125 C 6.578125 -2.238281 6.300781 -1.410156 5.75 -0.796875 C 5.195312 -0.179688 4.460938 0.125 3.546875 0.125 C 2.617188 0.125 1.878906 -0.179688 1.328125 -0.796875 C 0.773438 -1.410156 0.5 -2.238281 0.5 -3.28125 C 0.5 -4.3125 0.773438 -5.132812 1.328125 -5.75 C 1.878906 -6.375 2.617188 -6.6875 3.546875 -6.6875 Z M 3.546875 -6.6875 "/>
</symbol>
</g>
</defs>
<g id="surface15817">
<rect x="0" y="0" width="300" height="300" style="fill:rgb(100%,100%,100%);fill-opacity:1;stroke:none;"/>
<path style="fill:none;stroke-width:1.2;stroke-linecap:butt;stroke-linejoin:miter;stroke:rgb(20%,80%,80%);stroke-opacity:1;stroke-miterlimit:10;" d="M 55.199219 155.785156 L 57.445312 146.132812 "/>
<path style="fill:none;stroke-width:1.2;stroke-linecap:butt;stroke-linejoin:miter;stroke:rgb(0%,0%,0%);stroke-opacity:1;stroke-miterlimit:10;" d="M 57.445312 146.132812 L 59.691406 136.480469 "/>
<path style=" stroke:none;fill-rule:nonzero;fill:rgb(100%,100%,100%);fill-opacity:1;" d="M 52.199219 150.285156 L 58.199219 150.285156 L 58.199219 161.285156 L 52.199219 161.285156 Z M 52.199219 150.285156 "/>
<g style="fill:rgb(20%,80%,80%);fill-opacity:1;">
  <use xlink:href="#glyph0-1" x="52.199219" y="158.948242"/>
</g>
<path style="fill:none;stroke-width:1.2;stroke-linecap:butt;stroke-linejoin:miter;stroke:rgb(0%,0%,0%);stroke-opacity:1;stroke-miterlimit:10;" d="M 59.691406 136.480469 L 45.226562 122.941406 "/>
<path style="fill:none;stroke-width:1.2;stroke-linecap:butt;stroke-linejoin:miter;stroke:rgb(0%,0%,0%);stroke-opacity:1;stroke-miterlimit:10;" d="M 61.433594 131.722656 L 49.859375 120.890625 "/>
<path style="fill:none;stroke-width:1.2;stroke-linecap:butt;stroke-linejoin:miter;stroke:rgb(0%,0%,0%);stroke-opacity:1;stroke-miterlimit:10;" d="M 78.65625 130.722656 L 59.691406 136.480469 "/>
<path style="fill:none;stroke-width:1.2;stroke-linecap:butt;stroke-linejoin:miter;stroke:rgb(0%,0%,0%);stroke-opacity:1;stroke-miterlimit:10;" d="M 45.226562 122.941406 L 49.71875 103.640625 "/>
<path style="fill:none;stroke-width:1.2;stroke-linecap:butt;stroke-linejoin:miter;stroke:rgb(0%,0%,0%);stroke-opacity:1;stroke-miterlimit:10;" d="M 49.71875 103.640625 L 42.484375 96.867188 "/>
<path style="fill:none;stroke-width:1.2;stroke-linecap:butt;stroke-linejoin:miter;stroke:rgb(20%,80%,80%);stroke-opacity:1;stroke-miterlimit:10;" d="M 42.484375 96.867188 L 35.25 90.097656 "/>
<path style="fill:none;stroke-width:1.2;stroke-linecap:butt;stroke-linejoin:miter;stroke:rgb(0%,0%,0%);stroke-opacity:1;stroke-miterlimit:10;" d="M 49.71875 103.640625 L 68.679688 97.878906 "/>
<path style="fill:none;stroke-width:1.2;stroke-linecap:butt;stroke-linejoin:miter;stroke:rgb(0%,0%,0%);stroke-opacity:1;stroke-miterlimit:10;" d="M 52.96875 107.523438 L 68.140625 102.917969 "/>
<path style=" stroke:none;fill-rule:nonzero;fill:rgb(100%,100%,100%);fill-opacity:1;" d="M 29.25 84.597656 L 35.25 84.597656 L 35.25 95.597656 L 29.25 95.597656 Z M 29.25 84.597656 "/>
<g style="fill:rgb(20%,80%,80%);fill-opacity:1;">
  <use xlink:href="#glyph0-1" x="29.25" y="93.260742"/>
</g>
<path style="fill:none;stroke-width:1.2;stroke-linecap:butt;stroke-linejoin:miter;stroke:rgb(0%,0%,0%);stroke-opacity:1;stroke-miterlimit:10;" d="M 68.679688 97.878906 L 83.148438 111.421875 "/>
<path style="fill:none;stroke-width:1.2;stroke-linecap:butt;stroke-linejoin:miter;stroke:rgb(0%,0%,0%);stroke-opacity:1;stroke-miterlimit:10;" d="M 83.148438 111.421875 L 78.65625 130.722656 "/>
<path style="fill:none;stroke-width:1.2;stroke-linecap:butt;stroke-linejoin:miter;stroke:rgb(0%,0%,0%);stroke-opacity:1;stroke-miterlimit:10;" d="M 78.15625 112.296875 L 74.5625 127.734375 "/>
<path style="fill:none;stroke-width:1.2;stroke-linecap:butt;stroke-linejoin:miter;stroke:rgb(0%,0%,0%);stroke-opacity:1;stroke-miterlimit:10;" d="M 78.65625 130.722656 L 85.890625 137.496094 "/>
<path style="fill:none;stroke-width:1.2;stroke-linecap:butt;stroke-linejoin:miter;stroke:rgb(0%,0%,100%);stroke-opacity:1;stroke-miterlimit:10;" d="M 85.890625 137.496094 L 93.125 144.265625 "/>
<path style="fill:none;stroke-width:1.2;stroke-linecap:butt;stroke-linejoin:miter;stroke:rgb(0%,0%,100%);stroke-opacity:1;stroke-miterlimit:10;" d="M 93.125 144.265625 L 102.605469 141.386719 "/>
<path style="fill:none;stroke-width:1.2;stroke-linecap:butt;stroke-linejoin:miter;stroke:rgb(0%,0%,0%);stroke-opacity:1;stroke-miterlimit:10;" d="M 102.605469 141.386719 L 112.085938 138.507812 "/>
<path style=" stroke:none;fill-rule:nonzero;fill:rgb(100%,100%,100%);fill-opacity:1;" d="M 86.125 138.765625 L 100.125 138.765625 L 100.125 149.765625 L 86.125 149.765625 Z M 86.125 138.765625 "/>
<g style="fill:rgb(0%,0%,100%);fill-opacity:1;">
  <use xlink:href="#glyph0-2" x="86.125" y="147.428711"/>
  <use xlink:href="#glyph0-3" x="93.102539" y="147.428711"/>
</g>
<path style="fill:none;stroke-width:1.2;stroke-linecap:butt;stroke-linejoin:miter;stroke:rgb(0%,0%,0%);stroke-opacity:1;stroke-miterlimit:10;" d="M 112.085938 138.507812 L 115.328125 129.144531 "/>
<path style="fill:none;stroke-width:1.2;stroke-linecap:butt;stroke-linejoin:miter;stroke:rgb(0%,0%,100%);stroke-opacity:1;stroke-miterlimit:10;" d="M 115.328125 129.144531 L 118.574219 119.78125 "/>
<path style="fill:none;stroke-width:1.2;stroke-linecap:butt;stroke-linejoin:miter;stroke:rgb(0%,0%,0%);stroke-opacity:1;stroke-miterlimit:10;" d="M 117.140625 138.160156 L 119.734375 130.671875 "/>
<path style="fill:none;stroke-width:1.2;stroke-linecap:butt;stroke-linejoin:miter;stroke:rgb(0%,0%,100%);stroke-opacity:1;stroke-miterlimit:10;" d="M 119.734375 130.671875 L 122.328125 123.179688 "/>
<path style="fill:none;stroke-width:1.2;stroke-linecap:butt;stroke-linejoin:miter;stroke:rgb(0%,0%,100%);stroke-opacity:1;stroke-miterlimit:10;" d="M 127.890625 150.460938 L 119.988281 144.484375 "/>
<path style="fill:none;stroke-width:1.2;stroke-linecap:butt;stroke-linejoin:miter;stroke:rgb(0%,0%,0%);stroke-opacity:1;stroke-miterlimit:10;" d="M 119.988281 144.484375 L 112.085938 138.507812 "/>
<path style="fill:none;stroke-width:1.2;stroke-linecap:butt;stroke-linejoin:miter;stroke:rgb(0%,0%,100%);stroke-opacity:1;stroke-miterlimit:10;" d="M 118.574219 119.78125 L 128.480469 119.972656 "/>
<path style="fill:none;stroke-width:1.2;stroke-linecap:butt;stroke-linejoin:miter;stroke:rgb(0%,0%,0%);stroke-opacity:1;stroke-miterlimit:10;" d="M 128.480469 119.972656 L 138.386719 120.164062 "/>
<path style=" stroke:none;fill-rule:nonzero;fill:rgb(100%,100%,100%);fill-opacity:1;" d="M 115.574219 114.28125 L 122.574219 114.28125 L 122.574219 125.28125 L 115.574219 125.28125 Z M 115.574219 114.28125 "/>
<g style="fill:rgb(0%,0%,100%);fill-opacity:1;">
  <use xlink:href="#glyph0-2" x="115.574219" y="122.944336"/>
</g>
<path style="fill:none;stroke-width:1.2;stroke-linecap:butt;stroke-linejoin:miter;stroke:rgb(0%,0%,0%);stroke-opacity:1;stroke-miterlimit:10;" d="M 138.386719 120.164062 L 144.144531 139.125 "/>
<path style="fill:none;stroke-width:1.2;stroke-linecap:butt;stroke-linejoin:miter;stroke:rgb(0%,0%,0%);stroke-opacity:1;stroke-miterlimit:10;" d="M 143.421875 120.703125 L 148.03125 135.875 "/>
<path style="fill:none;stroke-width:1.2;stroke-linecap:butt;stroke-linejoin:miter;stroke:rgb(0%,0%,0%);stroke-opacity:1;stroke-miterlimit:10;" d="M 151.929688 105.695312 L 138.386719 120.164062 "/>
<path style="fill:none;stroke-width:1.2;stroke-linecap:butt;stroke-linejoin:miter;stroke:rgb(0%,0%,0%);stroke-opacity:1;stroke-miterlimit:10;" d="M 144.144531 139.125 L 153.796875 141.371094 "/>
<path style="fill:none;stroke-width:1.2;stroke-linecap:butt;stroke-linejoin:miter;stroke:rgb(0%,0%,100%);stroke-opacity:1;stroke-miterlimit:10;" d="M 153.796875 141.371094 L 163.445312 143.617188 "/>
<path style="fill:none;stroke-width:1.2;stroke-linecap:butt;stroke-linejoin:miter;stroke:rgb(0%,0%,0%);stroke-opacity:1;stroke-miterlimit:10;" d="M 144.144531 139.125 L 136.019531 144.792969 "/>
<path style="fill:none;stroke-width:1.2;stroke-linecap:butt;stroke-linejoin:miter;stroke:rgb(0%,0%,100%);stroke-opacity:1;stroke-miterlimit:10;" d="M 136.019531 144.792969 L 127.890625 150.460938 "/>
<path style="fill:none;stroke-width:1.2;stroke-linecap:butt;stroke-linejoin:miter;stroke:rgb(0%,0%,100%);stroke-opacity:1;stroke-miterlimit:10;" d="M 163.445312 143.617188 L 170.21875 136.386719 "/>
<path style="fill:none;stroke-width:1.2;stroke-linecap:butt;stroke-linejoin:miter;stroke:rgb(0%,0%,0%);stroke-opacity:1;stroke-miterlimit:10;" d="M 170.21875 136.386719 L 176.988281 129.152344 "/>
<path style="fill:none;stroke-width:1.2;stroke-linecap:butt;stroke-linejoin:miter;stroke:rgb(0%,0%,100%);stroke-opacity:1;stroke-miterlimit:10;" d="M 161.394531 138.984375 L 166.8125 133.199219 "/>
<path style="fill:none;stroke-width:1.2;stroke-linecap:butt;stroke-linejoin:miter;stroke:rgb(0%,0%,0%);stroke-opacity:1;stroke-miterlimit:10;" d="M 166.8125 133.199219 L 172.230469 127.410156 "/>
<path style=" stroke:none;fill-rule:nonzero;fill:rgb(100%,100%,100%);fill-opacity:1;" d="M 160.445312 138.117188 L 167.445312 138.117188 L 167.445312 149.117188 L 160.445312 149.117188 Z M 160.445312 138.117188 "/>
<g style="fill:rgb(0%,0%,100%);fill-opacity:1;">
  <use xlink:href="#glyph0-2" x="160.445312" y="146.780273"/>
</g>
<path style="fill:none;stroke-width:1.2;stroke-linecap:butt;stroke-linejoin:miter;stroke:rgb(0%,0%,0%);stroke-opacity:1;stroke-miterlimit:10;" d="M 176.988281 129.152344 L 174.109375 119.667969 "/>
<path style="fill:none;stroke-width:1.2;stroke-linecap:butt;stroke-linejoin:miter;stroke:rgb(0%,0%,100%);stroke-opacity:1;stroke-miterlimit:10;" d="M 174.109375 119.667969 L 171.230469 110.1875 "/>
<path style=" stroke:none;fill-rule:nonzero;fill:rgb(0%,0%,0%);fill-opacity:1;" d="M 196.289062 133.644531 L 177.78125 125.746094 L 176.195312 132.558594 Z M 196.289062 133.644531 "/>
<path style="fill:none;stroke-width:1.2;stroke-linecap:butt;stroke-linejoin:miter;stroke:rgb(0%,0%,100%);stroke-opacity:1;stroke-miterlimit:10;" d="M 171.230469 110.1875 L 161.578125 107.941406 "/>
<path style="fill:none;stroke-width:1.2;stroke-linecap:butt;stroke-linejoin:miter;stroke:rgb(0%,0%,0%);stroke-opacity:1;stroke-miterlimit:10;" d="M 161.578125 107.941406 L 151.929688 105.695312 "/>
<path style="fill:none;stroke-width:1.2;stroke-linecap:butt;stroke-linejoin:miter;stroke:rgb(0%,0%,100%);stroke-opacity:1;stroke-miterlimit:10;" d="M 168.242188 114.28125 L 160.519531 112.484375 "/>
<path style="fill:none;stroke-width:1.2;stroke-linecap:butt;stroke-linejoin:miter;stroke:rgb(0%,0%,0%);stroke-opacity:1;stroke-miterlimit:10;" d="M 160.519531 112.484375 L 152.800781 110.6875 "/>
<path style=" stroke:none;fill-rule:nonzero;fill:rgb(100%,100%,100%);fill-opacity:1;" d="M 168.230469 104.6875 L 175.230469 104.6875 L 175.230469 115.6875 L 168.230469 115.6875 Z M 168.230469 104.6875 "/>
<g style="fill:rgb(0%,0%,100%);fill-opacity:1;">
  <use xlink:href="#glyph0-2" x="168.230469" y="113.350586"/>
</g>
<path style="fill:none;stroke-width:1.2;stroke-linecap:butt;stroke-linejoin:miter;stroke:rgb(0%,0%,0%);stroke-opacity:1;stroke-miterlimit:10;" d="M 196.289062 133.644531 L 211.269531 120.671875 "/>
<path style="fill:none;stroke-width:1.2;stroke-linecap:butt;stroke-linejoin:miter;stroke:rgb(0%,0%,0%);stroke-opacity:1;stroke-miterlimit:10;" d="M 204 151.902344 L 196.289062 133.644531 "/>
<path style="fill:none;stroke-width:1.2;stroke-linecap:butt;stroke-linejoin:miter;stroke:rgb(0%,0%,0%);stroke-opacity:1;stroke-miterlimit:10;" d="M 211.269531 120.671875 L 228.238281 130.910156 "/>
<path style="fill:none;stroke-width:1.2;stroke-linecap:butt;stroke-linejoin:miter;stroke:rgb(0%,0%,0%);stroke-opacity:1;stroke-miterlimit:10;" d="M 228.238281 130.910156 L 223.742188 150.210938 "/>
<path style=" stroke:none;fill-rule:nonzero;fill:rgb(0%,0%,0%);fill-opacity:1;" d="M 228.238281 130.910156 L 247.855469 126.421875 L 245.132812 119.976562 Z M 228.238281 130.910156 "/>
<path style="fill:none;stroke-width:1.2;stroke-linecap:butt;stroke-linejoin:miter;stroke:rgb(0%,0%,0%);stroke-opacity:1;stroke-miterlimit:10;" d="M 223.742188 150.210938 L 204 151.902344 "/>
<path style="fill:none;stroke-width:1.2;stroke-linecap:butt;stroke-linejoin:miter;stroke:rgb(0%,0%,0%);stroke-opacity:1;stroke-miterlimit:10;" d="M 246.492188 123.199219 L 255.621094 119.34375 "/>
<path style="fill:none;stroke-width:1.2;stroke-linecap:butt;stroke-linejoin:miter;stroke:rgb(100%,0%,0%);stroke-opacity:1;stroke-miterlimit:10;" d="M 255.621094 119.34375 L 264.75 115.488281 "/>
<path style="fill:none;stroke-width:1.2;stroke-linecap:butt;stroke-linejoin:miter;stroke:rgb(0%,0%,0%);stroke-opacity:1;stroke-miterlimit:10;" d="M 246.492188 123.199219 L 238.785156 104.941406 "/>
<path style="fill:none;stroke-width:1.2;stroke-linecap:butt;stroke-linejoin:miter;stroke:rgb(0%,0%,0%);stroke-opacity:1;stroke-miterlimit:10;" d="M 246.492188 123.199219 L 254.203125 141.457031 "/>
<path style=" stroke:none;fill-rule:nonzero;fill:rgb(100%,100%,100%);fill-opacity:1;" d="M 257.75 109.988281 L 272.75 109.988281 L 272.75 120.988281 L 257.75 120.988281 Z M 257.75 109.988281 "/>
<g style="fill:rgb(100%,0%,0%);fill-opacity:1;">
  <use xlink:href="#glyph0-4" x="257.75" y="118.651367"/>
  <use xlink:href="#glyph0-3" x="265.091797" y="118.651367"/>
</g>
<path style="fill:none;stroke-width:1.2;stroke-linecap:butt;stroke-linejoin:miter;stroke:rgb(0%,0%,100%);stroke-opacity:1;stroke-miterlimit:10;" d="M 127.890625 150.460938 L 127.699219 160.367188 "/>
<path style="fill:none;stroke-width:1.2;stroke-linecap:butt;stroke-linejoin:miter;stroke:rgb(0%,0%,0%);stroke-opacity:1;stroke-miterlimit:10;" d="M 127.699219 160.367188 L 127.507812 170.277344 "/>
<path style=" stroke:none;fill-rule:nonzero;fill:rgb(100%,100%,100%);fill-opacity:1;" d="M 124.890625 144.960938 L 131.890625 144.960938 L 131.890625 155.960938 L 124.890625 155.960938 Z M 124.890625 144.960938 "/>
<g style="fill:rgb(0%,0%,100%);fill-opacity:1;">
  <use xlink:href="#glyph0-2" x="124.890625" y="153.624023"/>
</g>
<path style="fill:none;stroke-width:1.2;stroke-linecap:butt;stroke-linejoin:miter;stroke:rgb(0%,0%,0%);stroke-opacity:1;stroke-miterlimit:10;" d="M 127.507812 170.277344 L 110.15625 179.851562 "/>
<path style="fill:none;stroke-width:1.2;stroke-linecap:butt;stroke-linejoin:miter;stroke:rgb(0%,0%,0%);stroke-opacity:1;stroke-miterlimit:10;" d="M 144.476562 180.515625 L 127.507812 170.277344 "/>
<path style="fill:none;stroke-width:1.2;stroke-linecap:butt;stroke-linejoin:miter;stroke:rgb(0%,0%,0%);stroke-opacity:1;stroke-miterlimit:10;" d="M 110.15625 179.851562 L 109.773438 199.664062 "/>
<path style="fill:none;stroke-width:1.2;stroke-linecap:butt;stroke-linejoin:miter;stroke:rgb(0%,0%,0%);stroke-opacity:1;stroke-miterlimit:10;" d="M 109.773438 199.664062 L 118.257812 204.785156 "/>
<path style="fill:none;stroke-width:1.2;stroke-linecap:butt;stroke-linejoin:miter;stroke:rgb(100%,0%,0%);stroke-opacity:1;stroke-miterlimit:10;" d="M 118.257812 204.785156 L 126.742188 209.902344 "/>
<path style="fill:none;stroke-width:1.2;stroke-linecap:butt;stroke-linejoin:miter;stroke:rgb(100%,0%,0%);stroke-opacity:1;stroke-miterlimit:10;" d="M 126.742188 209.902344 L 135.417969 205.117188 "/>
<path style="fill:none;stroke-width:1.2;stroke-linecap:butt;stroke-linejoin:miter;stroke:rgb(0%,0%,0%);stroke-opacity:1;stroke-miterlimit:10;" d="M 135.417969 205.117188 L 144.09375 200.328125 "/>
<path style=" stroke:none;fill-rule:nonzero;fill:rgb(100%,100%,100%);fill-opacity:1;" d="M 122.742188 204.402344 L 130.742188 204.402344 L 130.742188 215.402344 L 122.742188 215.402344 Z M 122.742188 204.402344 "/>
<g style="fill:rgb(100%,0%,0%);fill-opacity:1;">
  <use xlink:href="#glyph0-4" x="122.742188" y="213.06543"/>
</g>
<path style="fill:none;stroke-width:1.2;stroke-linecap:butt;stroke-linejoin:miter;stroke:rgb(0%,0%,0%);stroke-opacity:1;stroke-miterlimit:10;" d="M 144.09375 200.328125 L 144.476562 180.515625 "/>
</g>
</svg>

<svg xmlns="http://www.w3.org/2000/svg" xmlns:xlink="http://www.w3.org/1999/xlink" width="300pt" height="300pt" viewBox="0 0 300 300"><defs><symbol overflow="visible"><path d="M.453 1.594v-7.938h4.5v7.938zm.5-.5h3.5v-6.938h-3.5zm0 0"/></symbol><symbol overflow="visible" id="a"><path d="M.89-6.563h3.766v.75h-2.89v1.938h2.61v.734h-2.61V0H.89zm0 0"/></symbol><symbol overflow="visible" id="b"><path d="M.89-6.563H2.08l2.906 5.485v-5.484h.86V0H4.656L1.75-5.484V0H.89zm0 0"/></symbol><symbol overflow="visible" id="c"><path d="M.89-6.563h.876v2.688H5v-2.688h.89V0H5v-3.125H1.766V0H.89zm0 0"/></symbol><symbol overflow="visible" id="d"><path d="M3.547-5.953c-.65 0-1.164.242-1.547.72-.375.48-.563 1.13-.563 1.952 0 .835.188 1.49.563 1.967.383.48.898.72 1.547.72.644 0 1.156-.24 1.53-.72.376-.476.564-1.132.564-1.968 0-.822-.187-1.474-.562-1.954-.375-.477-.887-.72-1.53-.72zm0-.734c.914 0 1.648.312 2.203.937.55.617.828 1.438.828 2.47 0 1.042-.277 1.87-.828 2.483-.555.617-1.29.922-2.203.922-.93 0-1.668-.305-2.22-.922C.774-1.41.5-2.237.5-3.28c0-1.033.273-1.853.828-2.47.55-.625 1.29-.938 2.22-.938zm0 0"/></symbol></defs><g><path fill="#fff" d="M0 0h300v300H0z"/><path d="M55.2 155.785l2.245-9.652" stroke-width="1.2" stroke="#3cc" stroke-miterlimit="10" fill="none"/><path d="M57.445 146.133l2.246-9.653" stroke-width="1.2" stroke="#000" stroke-miterlimit="10" fill="none"/><path d="M52.2 150.285h6v11h-6zm0 0" fill="#fff"/><use xlink:href="#a" x="52.199" y="158.948" fill="#3cc"/><path d="M59.69 136.48l-14.463-13.54M61.434 131.723L49.86 120.89M78.656 130.723L59.69 136.48M45.227 122.94l4.492-19.3M49.72 103.64l-7.236-6.773" stroke-width="1.2" stroke="#000" stroke-miterlimit="10" fill="none"/><path d="M42.484 96.867l-7.234-6.77" stroke-width="1.2" stroke="#3cc" stroke-miterlimit="10" fill="none"/><path d="M49.72 103.64l18.96-5.76M52.97 107.523l15.17-4.605" stroke-width="1.2" stroke="#000" stroke-miterlimit="10" fill="none"/><path d="M29.25 84.598h6v11h-6zm0 0" fill="#fff"/><use xlink:href="#a" x="29.25" y="93.261" fill="#3cc"/><path d="M68.68 97.88l14.468 13.542M83.148 111.422l-4.492 19.3M78.156 112.297l-3.594 15.437M78.656 130.723l7.235 6.773" stroke-width="1.2" stroke="#000" stroke-miterlimit="10" fill="none"/><path d="M85.89 137.496l7.235 6.77M93.125 144.266l9.48-2.88" stroke-width="1.2" stroke="#00f" stroke-miterlimit="10" fill="none"/><path d="M102.605 141.387l9.48-2.88" stroke-width="1.2" stroke="#000" stroke-miterlimit="10" fill="none"/><path d="M86.125 138.766h14v11h-14zm0 0" fill="#fff"/><g fill="#00f"><use xlink:href="#b" x="86.125" y="147.429"/><use xlink:href="#c" x="93.103" y="147.429"/></g><path d="M112.086 138.508l3.242-9.363" stroke-width="1.2" stroke="#000" stroke-miterlimit="10" fill="none"/><path d="M115.328 129.145l3.246-9.364" stroke-width="1.2" stroke="#00f" stroke-miterlimit="10" fill="none"/><path d="M117.14 138.16l2.594-7.488" stroke-width="1.2" stroke="#000" stroke-miterlimit="10" fill="none"/><path d="M119.734 130.672l2.594-7.492M127.89 150.46l-7.902-5.976" stroke-width="1.2" stroke="#00f" stroke-miterlimit="10" fill="none"/><path d="M119.988 144.484l-7.902-5.976" stroke-width="1.2" stroke="#000" stroke-miterlimit="10" fill="none"/><path d="M118.574 119.78l9.906.193" stroke-width="1.2" stroke="#00f" stroke-miterlimit="10" fill="none"/><path d="M128.48 119.973l9.907.19" stroke-width="1.2" stroke="#000" stroke-miterlimit="10" fill="none"/><path d="M115.574 114.28h7v11h-7zm0 0" fill="#fff"/><use xlink:href="#b" x="115.574" y="122.944" fill="#00f"/><path d="M138.387 120.164l5.758 18.96M143.422 120.703l4.61 15.172M151.93 105.695l-13.543 14.47M144.145 139.125l9.652 2.246" stroke-width="1.2" stroke="#000" stroke-miterlimit="10" fill="none"/><path d="M153.797 141.37l9.648 2.247" stroke-width="1.2" stroke="#00f" stroke-miterlimit="10" fill="none"/><path d="M144.145 139.125l-8.125 5.668" stroke-width="1.2" stroke="#000" stroke-miterlimit="10" fill="none"/><path d="M136.02 144.793l-8.13 5.668M163.445 143.617l6.774-7.23" stroke-width="1.2" stroke="#00f" stroke-miterlimit="10" fill="none"/><path d="M170.22 136.387l6.768-7.235" stroke-width="1.2" stroke="#000" stroke-miterlimit="10" fill="none"/><path d="M161.395 138.984l5.417-5.785" stroke-width="1.2" stroke="#00f" stroke-miterlimit="10" fill="none"/><path d="M166.813 133.2l5.417-5.79" stroke-width="1.2" stroke="#000" stroke-miterlimit="10" fill="none"/><path d="M160.445 138.117h7v11h-7zm0 0" fill="#fff"/><use xlink:href="#b" x="160.445" y="146.78" fill="#00f"/><path d="M176.988 129.152l-2.88-9.484" stroke-width="1.2" stroke="#000" stroke-miterlimit="10" fill="none"/><path d="M174.11 119.668l-2.88-9.48" stroke-width="1.2" stroke="#00f" stroke-miterlimit="10" fill="none"/><path d="M196.29 133.645l-18.51-7.9-1.585 6.814zm0 0"/><path d="M171.23 110.188l-9.652-2.247" stroke-width="1.2" stroke="#00f" stroke-miterlimit="10" fill="none"/><path d="M161.578 107.94l-9.648-2.245" stroke-width="1.2" stroke="#000" stroke-miterlimit="10" fill="none"/><path d="M168.242 114.28l-7.722-1.796" stroke-width="1.2" stroke="#00f" stroke-miterlimit="10" fill="none"/><path d="M160.52 112.484l-7.72-1.796" stroke-width="1.2" stroke="#000" stroke-miterlimit="10" fill="none"/><path d="M168.23 104.688h7v11h-7zm0 0" fill="#fff"/><use xlink:href="#b" x="168.23" y="113.351" fill="#00f"/><path d="M196.29 133.645l14.98-12.973M204 151.902l-7.71-18.257M211.27 120.672l16.968 10.238M228.238 130.91l-4.496 19.3" stroke-width="1.2" stroke="#000" stroke-miterlimit="10" fill="none"/><path d="M228.238 130.91l19.617-4.488-2.722-6.445zm0 0"/><path d="M223.742 150.21L204 151.903M246.492 123.2l9.13-3.856" stroke-width="1.2" stroke="#000" stroke-miterlimit="10" fill="none"/><path d="M255.62 119.344l9.13-3.856" stroke-width="1.2" stroke="#f00" stroke-miterlimit="10" fill="none"/><path d="M246.492 123.2l-7.707-18.26M246.492 123.2l7.71 18.257" stroke-width="1.2" stroke="#000" stroke-miterlimit="10" fill="none"/><path d="M257.75 109.988h15v11h-15zm0 0" fill="#fff"/><g fill="#f00"><use xlink:href="#d" x="257.75" y="118.651"/><use xlink:href="#c" x="265.092" y="118.651"/></g><path d="M127.89 150.46l-.19 9.907" stroke-width="1.2" stroke="#00f" stroke-miterlimit="10" fill="none"/><path d="M127.7 160.367l-.192 9.91" stroke-width="1.2" stroke="#000" stroke-miterlimit="10" fill="none"/><path d="M124.89 144.96h7v11h-7zm0 0" fill="#fff"/><use xlink:href="#b" x="124.891" y="153.624" fill="#00f"/><path d="M127.508 170.277l-17.352 9.575M144.477 180.516l-16.97-10.24M110.156 179.852l-.383 19.812M109.773 199.664l8.485 5.12" stroke-width="1.2" stroke="#000" stroke-miterlimit="10" fill="none"/><path d="M118.258 204.785l8.484 5.117M126.742 209.902l8.676-4.785" stroke-width="1.2" stroke="#f00" stroke-miterlimit="10" fill="none"/><path d="M135.418 205.117l8.676-4.79" stroke-width="1.2" stroke="#000" stroke-miterlimit="10" fill="none"/><path d="M122.742 204.402h8v11h-8zm0 0" fill="#fff"/><use xlink:href="#d" x="122.742" y="213.065" fill="#f00"/><path d="M144.094 200.328l.383-19.812" stroke-width="1.2" stroke="#000" stroke-miterlimit="10" fill="none"/></g></svg>
